X: 42479
T: Wexford Carol, The
R: waltz
M: 3/4
K: Gmajor
D|:G G/F/G3A|Bcd3d|cB GD2E|=FGF3D|
G G/^F/G3A|Bcd3B|cd BG2A|GFG3G||
G=f dc2A|_BcB3d/c/|_BA GD2E|=FGF3D|
G G/^F/G3A|=Bcd3B|cd BG2A|GFG3D:|

